X: 169
T: Jamie Raeburn
M:4/4
L:1/8
Z:added by Alf warnock alf0@rogers.com
K:Gm
d2|"Gm"d3d d2d2|"Eb"e2e4d2|"F"c2F2 F2F2|"Gm"G6g2|
"Gm"g3g g2g2|"Eb"b2b4g2|"F"f3f c2c2|"Gm"d7g|
"Gm"g3g g2g2|"Eb"b2b4g2|"F"f3f c2c2|"Gm"d6d2|
"Gm"d3d d2d2|"Eb"e2e2 e4-|e6d2|"F"c2F2 F2F2|"Gm"G8-|G6:|

